X: 100076
M: C|
L: 1/8
K: A
uc |\
e |\
(.a>.b)(af) (.e>.f)(ec) | (.a>.b) (a>f) (e>f) [c2A2] |\
(a>b)(a>f) (.e>.f)(ec) | (.f>.g)(a>f) e<c [BG]>e |
(.a>.b)(af) (.e>.f)(ec) | (.a>.b)(af) (e<f) [c2A2] |\
(a>b) (f>a) (e>f) (c>e) | (.f>.g)(af) "_Segue Reel."e<c [BG] "^D.C."|]


